flaticon/seo-and-analytics/worldwide-18.svg

<svg xmlns="http://www.w3.org/2000/svg" width="32" height="32" viewBox="0 0 24 24">
    <path d="M 18.722656 13.460938 C 17.175781 13.460938 15.714844 14.070312 14.742188 15.207031 C 14.578125 15.371094 14.621094 15.613281 14.78125 15.777344 C 14.945312 15.9375 15.1875 15.898438 15.351562 15.734375 C 16.164062 14.761719 17.378906 14.234375 18.679688 14.234375 C 21.15625 14.234375 23.148438 16.222656 23.148438 18.699219 C 23.148438 21.175781 21.15625 23.167969 18.679688 23.167969 C 16.660156 23.167969 14.882812 21.789062 14.328125 19.917969 L 16.242188 19.917969 L 16.242188 19.105469 L 13.855469 19.105469 C 13.8125 19.097656 13.769531 19.097656 13.726562 19.105469 L 12.996094 19.105469 L 12.996094 22.355469 L 13.808594 22.355469 L 13.808594 20.898438 C 14.65625 22.710938 16.5625 23.980469 18.679688 23.980469 C 21.605469 23.980469 24 21.664062 24 18.742188 C 24 15.816406 21.644531 13.460938 18.722656 13.460938 Z M 18.722656 13.460938"/>
    <path d="M 23.148438 12.203125 C 23.390625 12.203125 23.554688 12.039062 23.554688 11.796875 C 23.554688 5.441406 18.5 0.25 12.195312 0.0273438 L 12.183594 0.0195312 L 11.9375 0.0195312 C 11.898438 0.0195312 11.816406 0.0195312 11.777344 0.0195312 C 11.734375 0.0195312 11.65625 0.0195312 11.613281 0.0195312 L 11.371094 0.0195312 L 11.359375 0.0273438 C 5.054688 0.25 0 5.441406 0 11.796875 C 0 14.765625 1.101562 17.480469 2.921875 19.554688 C 2.933594 19.582031 2.945312 19.609375 2.964844 19.632812 C 3.003906 19.691406 3.050781 19.730469 3.101562 19.757812 C 5.167969 22.007812 8.09375 23.449219 11.359375 23.566406 L 11.371094 23.574219 L 11.613281 23.574219 C 11.65625 23.574219 11.734375 23.574219 11.777344 23.574219 C 12.019531 23.574219 12.183594 23.410156 12.183594 23.167969 L 12.183594 12.203125 Z M 0.820312 12.203125 L 5.691406 12.203125 C 5.738281 13.921875 6.074219 15.597656 6.671875 17.164062 C 5.523438 17.585938 4.417969 18.144531 3.378906 18.839844 C 1.859375 17.03125 0.914062 14.726562 0.820312 12.203125 Z M 3.582031 4.515625 C 4.597656 5.171875 5.679688 5.699219 6.804688 6.089844 C 6.121094 7.753906 5.738281 9.546875 5.691406 11.390625 L 0.820312 11.390625 C 0.917969 8.757812 1.941406 6.359375 3.582031 4.515625 Z M 22.734375 11.390625 L 17.863281 11.390625 C 17.8125 9.546875 17.429688 7.753906 16.75 6.089844 C 17.875 5.695312 18.953125 5.164062 19.957031 4.503906 C 21.605469 6.347656 22.636719 8.75 22.734375 11.390625 Z M 16.414062 5.332031 C 15.640625 3.703125 14.570312 2.207031 13.238281 0.929688 C 15.609375 1.246094 17.738281 2.320312 19.378906 3.898438 C 18.445312 4.496094 17.449219 4.976562 16.414062 5.332031 Z M 11.371094 6.105469 C 10.199219 6.070312 9.039062 5.894531 7.917969 5.578125 C 8.742188 3.882812 9.90625 2.351562 11.371094 1.074219 Z M 15.636719 5.578125 C 14.511719 5.894531 13.351562 6.070312 12.183594 6.105469 L 12.183594 1.074219 C 13.648438 2.351562 14.8125 3.882812 15.636719 5.578125 Z M 7.136719 5.332031 C 6.101562 4.976562 5.105469 4.496094 4.175781 3.898438 C 5.816406 2.320312 7.945312 1.246094 10.3125 0.929688 C 8.984375 2.207031 7.914062 3.703125 7.136719 5.332031 Z M 7.578125 6.335938 C 8.804688 6.6875 10.074219 6.882812 11.371094 6.917969 L 11.371094 11.390625 L 6.503906 11.390625 C 6.550781 9.628906 6.921875 7.921875 7.578125 6.335938 Z M 12.183594 6.917969 C 13.480469 6.882812 14.753906 6.6875 15.976562 6.335938 C 16.632812 7.917969 17 9.628906 17.050781 11.390625 L 12.183594 11.390625 Z M 3.925781 19.445312 C 4.886719 18.800781 5.910156 18.289062 6.976562 17.90625 C 7.761719 19.675781 8.886719 21.292969 10.3125 22.664062 C 7.824219 22.332031 5.597656 21.160156 3.925781 19.445312 Z M 7.75 17.652344 C 8.917969 17.308594 10.132812 17.117188 11.371094 17.082031 L 11.371094 22.519531 C 9.800781 21.152344 8.578125 19.492188 7.75 17.652344 Z M 11.371094 16.269531 C 10.027344 16.304688 8.710938 16.523438 7.4375 16.910156 C 6.871094 15.425781 6.546875 13.835938 6.503906 12.203125 L 11.371094 12.203125 Z M 11.371094 16.269531"/>
</svg>

<svg xmlns="http://www.w3.org/2000/svg" width="32" height="32" viewBox="0 0 24 24">
    <path d="M18.723 13.46c-1.547 0-3.008.61-3.98 1.747-.165.164-.122.406.038.57.164.16.406.121.57-.043.813-.972 2.028-1.5 3.329-1.5a4.455 4.455 0 0 1 4.468 4.465 4.458 4.458 0 0 1-4.468 4.469c-2.02 0-3.797-1.379-4.352-3.25h1.914v-.813h-2.387a.357.357 0 0 0-.128 0h-.73v3.25h.812v-1.457c.847 1.813 2.754 3.082 4.87 3.082 2.926 0 5.321-2.316 5.321-5.238a5.269 5.269 0 0 0-5.277-5.281zm0 0"/>
    <path d="M23.148 12.203a.385.385 0 0 0 .407-.406C23.555 5.44 18.5.25 12.195.027L12.184.02H11.37l-.012.007C5.055.25 0 5.441 0 11.797c0 2.969 1.102 5.683 2.922 7.758.012.027.023.054.043.078.039.058.086.097.137.125a11.757 11.757 0 0 0 8.257 3.808l.012.008h.406a.385.385 0 0 0 .407-.406V12.203zm-22.328 0h4.871c.047 1.719.383 3.395.98 4.961A15.57 15.57 0 0 0 3.38 18.84 10.918 10.918 0 0 1 .82 12.203zm2.762-7.687A15.01 15.01 0 0 0 6.805 6.09a14.939 14.939 0 0 0-1.114 5.3H.821a10.923 10.923 0 0 1 2.761-6.874zm19.152 6.875h-4.87A15.111 15.111 0 0 0 16.75 6.09a14.678 14.678 0 0 0 3.207-1.586 10.909 10.909 0 0 1 2.777 6.887zm-6.32-6.059A15.034 15.034 0 0 0 13.238.93c2.371.316 4.5 1.39 6.14 2.968a13.834 13.834 0 0 1-2.964 1.434zm-5.043.773a14.29 14.29 0 0 1-3.453-.527 14.219 14.219 0 0 1 3.453-4.504zm4.266-.527a14.35 14.35 0 0 1-3.453.527v-5.03a14.219 14.219 0 0 1 3.453 4.503zm-8.5-.246a13.717 13.717 0 0 1-2.961-1.434A10.938 10.938 0 0 1 10.312.93a15.178 15.178 0 0 0-3.175 4.402zm.441 1.004c1.227.351 2.496.547 3.793.582v4.473H6.504a14.189 14.189 0 0 1 1.074-5.055zm4.606.582a15.21 15.21 0 0 0 3.793-.582 14.255 14.255 0 0 1 1.074 5.055h-4.867zM3.926 19.445a13.894 13.894 0 0 1 3.05-1.539 15.082 15.082 0 0 0 3.337 4.758 10.94 10.94 0 0 1-6.387-3.219zm3.824-1.793a14.244 14.244 0 0 1 3.621-.57v5.438a14.142 14.142 0 0 1-3.621-4.868zm3.621-1.382c-1.344.035-2.66.253-3.934.64a14.255 14.255 0 0 1-.933-4.707h4.867zm0 0"/>
</svg>
